X: 33289
T: Put Me In The Big Chest
R: reel
M: 4/4
K: Amajor
EFAB c3 f|ecBA FAAF|EFAB c^Bcf|ecBG A2:|
e2 ec eA (3AAA|efec B^ABc|~e3 c e ~f3|ec (3BAG A2:|

